X: 5068
T: Bridal, The
R: jig
M: 6/8
K: Gmajor
|:~G2G BAB|def g2f|eAA BAG|FAG FED|
~G2G BAB|def g2f|eAA BAG|FAF G2D:|
|:E2e edB|def g2a|b2g agf|ggg fdB|
e2e edB|def g2a|bag agf|gee e3:|

